src/assets/icons/umbrella-solid.svg

<svg aria-hidden="true" data-prefix="fas" data-icon="umbrella" class="svg-inline--fa fa-umbrella fa-w-18" role="img" xmlns="http://www.w3.org/2000/svg" viewBox="0 0 576 512"><path fill="currentColor" d="M557.011 267.631c-51.432-45.217-107.572-43.698-158.567 30.731-5.298 7.861-14.906 7.165-19.736 0-2.483-3.624-32.218-60.808-90.708-60.808-45.766 0-70.542 31.378-90.709 60.808-4.829 7.165-14.436 7.861-19.734 0-50.904-74.285-106.613-76.406-158.567-30.731-10.21 8.264-20.912-1.109-18.696-9.481C32.146 134.573 158.516 64.612 288.001 64.612c128.793 0 256.546 69.961 287.706 193.538 2.206 8.322-8.426 17.793-18.696 9.481zM256 261.001V416c0 17.645-14.355 32-32 32s-32-14.355-32-32c0-17.673-14.327-32-32-32s-32 14.327-32 32c0 52.935 43.065 96 96 96s96-43.065 96-96V261.288c-21.836-10.806-45.425-9.737-64-.287zm64-211.007V32c0-17.673-14.327-32-32-32s-32 14.327-32 32v17.987a372.105 372.105 0 0 1 64 .007z"></path></svg>

<?xml version="1.0" standalone="no"?><!-- Generator: Gravit.io --><svg xmlns="http://www.w3.org/2000/svg" xmlns:xlink="http://www.w3.org/1999/xlink" style="isolation:isolate" viewBox="0 0 576 512" width="576" height="512"><defs><clipPath id="_clipPath_PdE9IFS9BGEbiEaC5ckTN6EvlOsgnjsD"><rect width="576" height="512"/></clipPath></defs><g clip-path="url(#_clipPath_PdE9IFS9BGEbiEaC5ckTN6EvlOsgnjsD)"><path d=" M 557.011 267.631 C 505.579 222.414 449.439 223.933 398.444 298.362 C 393.146 306.223 383.538 305.527 378.708 298.362 C 376.225 294.738 346.49 237.554 288 237.554 C 242.234 237.554 217.458 268.932 197.291 298.362 C 192.462 305.527 182.855 306.223 177.557 298.362 C 126.653 224.077 70.944 221.956 18.99 267.631 C 8.78 275.895 -1.922 266.522 0.294 258.15 C 32.146 134.573 158.516 64.612 288.001 64.612 C 416.794 64.612 544.547 134.573 575.707 258.15 C 577.913 266.472 567.281 275.943 557.011 267.631 Z  M 256 261.001 L 256 416 C 256 433.645 241.645 448 224 448 C 206.355 448 192 433.645 192 416 C 192 398.327 177.673 384 160 384 C 142.327 384 128 398.327 128 416 C 128 468.935 171.065 512 224 512 C 276.935 512 320 468.935 320 416 L 320 261.288 C 298.164 250.482 274.575 251.551 256 261.001 L 256 261.001 Z  M 320 49.994 L 320 32 C 320 14.327 305.673 0 288 0 C 270.327 0 256 14.327 256 32 L 256 49.987 C 277.294 48.151 298.706 48.154 320 49.994 L 320 49.994 Z " fill="rgb(255,255,255)"/></g></svg>
